apps/www/public/images/ga/partners/flutterflow--dark.svg

<svg width="386" height="80" viewBox="0 0 386 80" fill="none" xmlns="http://www.w3.org/2000/svg">
<path fill-rule="evenodd" clip-rule="evenodd" d="M63.1347 5C65.1766 5 67.0668 6.10496 68.0244 7.90118C68.9419 9.6217 68.903 11.6492 67.9227 13.332L67.8893 13.3886L59.2972 27.7617C58.3256 29.387 56.5715 30.4014 54.6968 30.423L54.6356 30.4234L44.8241 30.4233L48.9021 39.7593L48.9183 39.7867L48.9434 39.8308C49.9038 41.5666 49.8804 43.6304 48.8844 45.3403L48.8509 45.3972L40.2588 59.7702C39.2872 61.3955 37.5332 62.4099 35.6585 62.4315L35.5973 62.4319L23.5549 62.4318L14.8978 71.5627L14.8814 71.5797C14.0668 72.4078 12.9661 72.8698 11.8185 72.8698C11.5316 72.8698 11.2445 72.8408 10.9605 72.7829C9.56066 72.4971 8.39759 71.5365 7.83774 70.2117L7.82195 70.1739L3.26613 59.7156L3.24217 59.6755L3.21728 59.6324C3.21314 59.625 3.20894 59.6175 3.20454 59.6095C2.24416 57.8739 2.26743 55.8101 3.26326 54.1001L3.29682 54.0432L11.6302 40.1029L5.48975 26.0452L5.60227 25.9879L5.60057 25.9794C5.34075 24.6863 5.5499 23.3378 6.21716 22.1567L6.25401 22.0925L6.28807 22.0347L14.8802 7.66159C15.8519 6.03641 17.606 5.02198 19.4806 5H19.5418H63.1347ZM18.0195 62.3226L8.89039 62.3224L11.5717 68.525L11.5783 68.5415C11.6227 68.6526 11.6946 68.7134 11.8016 68.7354C11.8971 68.7551 11.9743 68.7348 12.0474 68.6682L12.0601 68.6558L18.0195 62.3226ZM44.1168 40.9985H16.5216C16.4912 40.9985 16.4607 40.9995 16.4303 41.0016L16.4219 41.0022L23.9883 58.3099H35.5959C36.0731 58.3099 36.5327 58.0544 36.7941 57.6441L36.8148 57.6105L45.4193 43.2287C45.676 42.7997 45.7044 42.3019 45.501 41.854C45.2665 41.3375 44.7221 40.9985 44.1168 40.9985ZM13.6531 44.5525L6.82399 56.0629C6.55225 56.5211 6.5365 57.0576 6.77984 57.5298L6.80565 57.5778L6.8194 57.6013L6.84697 57.6464L6.90158 57.7276L6.96255 57.8069L7.02088 57.8735L7.031 57.8843L7.07045 57.9243L7.10472 57.9569C7.31954 58.1519 7.58509 58.2709 7.87798 58.3015L7.94378 58.3071L7.98188 58.3091L8.03015 58.3099H19.6171L13.6531 44.5525ZM11.8574 30.4512L14.8566 37.3299L14.9151 37.3099C15.433 37.1366 15.9746 37.0427 16.522 37.0341L16.6042 37.0335L43.3529 37.0334L40.4829 30.4513L11.8574 30.4512ZM63.0585 9.01257H35.3649L42.9335 26.3239H54.537C55.015 26.3239 55.475 26.0683 55.7365 25.6578L55.7573 25.6242L64.3623 11.2426C64.6189 10.8137 64.6473 10.3163 64.4441 9.8688C64.2144 9.36289 63.6876 9.02709 63.0971 9.01303L63.0585 9.01257ZM31.1254 9.01257H19.5861C19.1116 9.01257 18.6539 9.26756 18.3936 9.67744L18.3729 9.71101L9.79049 24.0929C9.53426 24.5222 9.50595 25.0207 9.70912 25.4692C9.93797 25.9746 10.4619 26.3095 11.0489 26.3235L11.0872 26.3239H38.6742L31.1254 9.01257Z" fill="#4B39EF"/>
<path fill-rule="evenodd" clip-rule="evenodd" d="M108.868 26.5584L108.901 17.7456H84.6924V57.804H93.8062V43.0968H105.735L105.768 34.284H93.8062V26.5584H108.868ZM114.027 57.804H122.572V16.0288H114.027V57.804ZM147.236 29.1908V44.8136C147.236 48.8767 145.071 50.7079 141.938 50.7079C139.204 50.7079 136.983 49.0483 136.983 45.5003V29.1908H128.439V46.7593C128.439 54.4848 133.337 58.6051 139.09 58.6051C142.85 58.6051 145.698 57.2317 147.236 55.1143V57.804H155.78V29.1908H147.236ZM178.735 37.4314V29.1908H172.868V21.1792L164.324 23.7544V29.1908H159.767V37.4314H164.324V47.5605C164.324 55.5721 167.571 58.9485 178.735 57.804V50.0212C174.976 50.2501 172.868 50.0212 172.868 47.5605V37.4314H178.735ZM200.836 37.4314V29.1908H194.969V21.1792L186.425 23.7544V29.1908H181.868V37.4314H186.425V47.5605C186.425 55.5721 189.672 58.9485 200.836 57.804V50.0212C197.077 50.2501 194.969 50.0212 194.969 47.5605V37.4314H200.836ZM213.881 46.931H234.102C234.33 45.8437 234.444 44.6992 234.444 43.4974C234.444 34.8562 228.292 28.3897 219.975 28.3897C210.976 28.3897 204.824 34.9707 204.824 43.4974C204.824 52.0241 210.862 58.6051 220.602 58.6051C226.013 58.6051 230.229 56.6022 233.02 52.7108L226.184 48.7622C225.045 50.0212 223.051 50.9368 220.716 50.9368C217.583 50.9368 214.963 49.9067 213.881 46.931ZM213.71 40.5216C214.507 37.6031 216.672 36.0008 219.919 36.0008C222.482 36.0008 225.045 37.2025 225.956 40.5216H213.71ZM247.83 34.284V29.1908H239.285V57.804H247.83V44.8708C247.83 39.2054 252.842 37.7748 256.374 38.347V28.6186C252.785 28.6186 248.969 30.4498 247.83 34.284ZM284.821 26.5584L284.854 17.7456H260.646V57.804H269.76V43.0968H281.688L281.722 34.284H269.76V26.5584H284.821ZM289.981 57.804H298.525V16.0288H289.981V57.804ZM318.462 58.6051C326.835 58.6051 333.556 52.0241 333.556 43.4974C333.556 34.9707 326.835 28.3897 318.462 28.3897C310.088 28.3897 303.367 34.9707 303.367 43.4974C303.367 52.0241 310.088 58.6051 318.462 58.6051ZM318.462 50.2501C314.759 50.2501 311.911 47.5605 311.911 43.4974C311.911 39.4343 314.759 36.7447 318.462 36.7447C322.164 36.7447 325.012 39.4343 325.012 43.4974C325.012 47.5605 322.164 50.2501 318.462 50.2501ZM369.727 29.1908L365.626 44.5275L361.183 29.1908H353.208L348.765 44.5275L344.664 29.1908H335.55L344.664 57.804H352.638L357.195 42.5246L361.752 57.804H369.727L378.841 29.1908H369.727Z" fill="#EDEDED"/>
</svg>

<svg xmlns="http://www.w3.org/2000/svg" width="386" height="80" fill="none" viewBox="0 0 386 80"><path fill="#4b39ef" fill-rule="evenodd" d="M63.135 5c2.042 0 3.932 1.105 4.89 2.901a5.54 5.54 0 0 1-.102 5.431l-.034.057-8.592 14.373a5.46 5.46 0 0 1-4.6 2.661h-9.873l4.078 9.336.016.028.025.044c.96 1.736.937 3.8-.059 5.51l-.033.056-8.592 14.373a5.46 5.46 0 0 1-4.6 2.661H23.554l-8.657 9.132-.017.017a4.3 4.3 0 0 1-3.92 1.203 4.33 4.33 0 0 1-3.123-2.571l-.016-.038-4.556-10.458-.024-.04-.025-.044-.012-.023a5.54 5.54 0 0 1 .058-5.509l.034-.057 8.333-13.94-6.14-14.058.112-.057-.001-.009a5.53 5.53 0 0 1 .616-3.822l.037-.064.034-.058L14.88 7.662A5.46 5.46 0 0 1 19.48 5h43.655M18.02 62.323H8.89l2.682 6.202.006.016a.29.29 0 0 0 .224.194.26.26 0 0 0 .245-.067l.013-.012zm26.097-21.324H16.522q-.045 0-.092.003h-.008l7.566 17.308h11.608c.477 0 .937-.256 1.198-.666l.02-.033 8.605-14.382a1.46 1.46 0 0 0 .082-1.375c-.234-.517-.779-.855-1.384-.855m-30.464 3.553-6.829 11.51a1.49 1.49 0 0 0-.044 1.468l.026.048.013.023.028.045.055.082.06.079.059.066.01.011.04.04.034.033c.215.195.48.314.773.344l.066.006.038.002h11.635zm-1.796-14.1 3 6.878.058-.02a5.3 5.3 0 0 1 1.607-.276h26.831l-2.87-6.583zM63.06 9.011H35.365l7.569 17.312h11.603a1.44 1.44 0 0 0 1.2-.666l.02-.034 8.605-14.381c.257-.43.285-.927.082-1.374-.23-.506-.756-.842-1.347-.856zm-31.934 0H19.586a1.43 1.43 0 0 0-1.192.665l-.021.034L9.79 24.093c-.256.43-.284.928-.08 1.376.228.506.752.84 1.339.854h27.625z" clip-rule="evenodd"/><path fill="#ededed" fill-rule="evenodd" d="m108.868 26.558.033-8.812H84.692v40.058h9.114V43.097h11.929l.033-8.813H93.806v-7.726zm5.159 31.246h8.545V16.029h-8.545zm33.209-28.613v15.623c0 4.063-2.165 5.894-5.298 5.894-2.734 0-4.955-1.66-4.955-5.208V29.19h-8.544v17.57c0 7.725 4.898 11.845 10.651 11.845 3.76 0 6.608-1.373 8.146-3.49v2.689h8.544V29.191zm31.499 8.24v-8.24h-5.867v-8.012l-8.544 2.575v5.437h-4.557v8.24h4.557v10.13c0 8.011 3.247 11.388 14.411 10.243v-7.783c-3.759.23-5.867 0-5.867-2.46V37.43zm22.101 0v-8.24h-5.867v-8.012l-8.544 2.575v5.437h-4.557v8.24h4.557v10.13c0 8.011 3.247 11.388 14.411 10.243v-7.783c-3.759.23-5.867 0-5.867-2.46V37.43zm13.045 9.5h20.221q.342-1.63.342-3.434c0-8.64-6.152-15.107-14.469-15.107-8.999 0-15.151 6.58-15.151 15.107s6.038 15.108 15.778 15.108c5.411 0 9.627-2.003 12.418-5.894l-6.836-3.949c-1.139 1.26-3.133 2.175-5.468 2.175-3.133 0-5.753-1.03-6.835-4.006m-.171-6.41c.797-2.918 2.962-4.52 6.209-4.52 2.563 0 5.126 1.202 6.037 4.52zm34.12-6.237v-5.093h-8.545v28.613h8.545V44.871c0-5.666 5.012-7.096 8.544-6.524v-9.728c-3.589 0-7.405 1.83-8.544 5.665m36.991-7.726.033-8.812h-24.208v40.058h9.114V43.097h11.928l.034-8.813H269.76v-7.726zm5.16 31.246h8.544V16.029h-8.544zm28.481.801c8.373 0 15.094-6.58 15.094-15.108 0-8.526-6.721-15.107-15.094-15.107-8.374 0-15.095 6.58-15.095 15.107s6.721 15.108 15.095 15.108m0-8.355c-3.703 0-6.551-2.69-6.551-6.753s2.848-6.752 6.551-6.752c3.702 0 6.55 2.69 6.55 6.752 0 4.063-2.848 6.753-6.55 6.753m51.265-21.06-4.101 15.338-4.443-15.337h-7.975l-4.443 15.337-4.101-15.337h-9.114l9.114 28.613h7.974l4.557-15.28 4.557 15.28h7.975l9.114-28.613z" clip-rule="evenodd"/></svg>
